X: 602
T: Presbyterian Jigg
M:4/4
L:1/4
N:penultimate bar has 6 crotchets printed - here correcte
B: Walsh "Third Book of the most Celebrated jiggs, Lancashire hornpipes, ..."
K:Emin
BG2B/c/ | dGdG | BG2B/c/ | d2B2 | cA2c/d/ | eAeA | eA2c/d/e2B2 ||
Gg2f/g/ | a/g/f/e/dc/B/ | Aa2g/a/ | b/a/g/f/ e/f/g/a/ | Gg2f/g/ |\
a/g/f/e/dg | f/g/a/f/ dg | f/g/a/f/dg | f/g/a/f/dg | f2e2 ||

%%sep 1 1 500
%%sep 1 1 500
